X:1
T:The Painful Plough.
B:Songs of the West by S. Baring-Gould.
S:Rodger Huggins, mason, Lydford.
M:4/4                                               
L:1/8
K:F
(cA)| F2 F2 (FA) c2|(d2c2) A2 G2|G2 F2 D2 E2|
w:O *A-dam was *a plough-*boy, when ploughing *first be-
F4 z2 (cA)| F2 F2 (FA) c2|(d2c2) A2 G2|
w:gun, The *next that did *suc-ceed *him was
G2 F2 D2 E2|F4 z2 c2|d2 c2 d2 e2|
w:Cain, his eld-est son: Some of the gen-e-
(f2d2)c2 A2|G2 F2 G2 A2|G4 z2 c2|
w:ra-*tion this cal-ling still pur-sue, That
F2 F2 (FA) c2|(d2c2) A2 G2|G2 F2 D2 E2| F5 z2||
w:bread may not *be want-*ing, they la-bour at the plough. 